X: 77
P: Longways for as many as will
M: 6/4
L: 1/4
K: Gm
f>g a/g/ f>g a/g/ | f2F A/B/cc |
=e/^f/gg g2b | a>g f/=e/ d2=e |\
f>g a/g/ f>g a/g/ | f2F A/B/cc |\
d2d =e>^fg | d>c B/A/ G2 |]

